assets/img/team-github.svg

<svg xmlns="http://www.w3.org/2000/svg" width="30" height="30" viewBox="0 0 30 30">
  <path fill="#333" fill-rule="evenodd" d="M668,353 L694,353 C695.104569,353 696,353.895431 696,355 L696,381 C696,382.104569 695.104569,383 694,383 L668,383 C666.895431,383 666,382.104569 666,381 L666,355 C666,353.895431 666.895431,353 668,353 Z M674.771727,368.28427 C674.744669,368.284205 675.067752,368.967989 675.076673,368.967778 C675.781438,370.225395 677.140627,371.007838 679.433049,371.224259 C679.105837,371.468267 678.712795,371.931549 678.658582,372.46713 C678.247147,372.728737 677.419919,372.81483 676.776628,372.615533 C675.875342,372.335851 675.53022,370.582132 674.180712,370.831848 C673.888351,370.886072 673.946436,371.07538 674.199105,371.23615 C674.610541,371.497757 674.997774,371.825004 675.296428,372.52183 C675.525864,373.056936 676.007969,374.012991 677.532701,374.012991 C678.137753,374.012991 678.561774,373.941643 678.561774,373.941643 C678.561774,373.941643 678.573391,375.307232 678.573391,375.838057 C678.573391,376.450218 677.73261,376.622878 677.73261,376.917305 C677.73261,377.033839 678.010934,377.044779 678.234562,377.044779 C678.676492,377.044779 679.596171,376.682335 679.596171,376.045916 C679.596171,375.540301 679.6044,373.84033 679.6044,373.543049 C679.6044,372.892836 679.959202,372.68688 679.959202,372.68688 C679.959202,372.68688 680.00325,376.157693 679.874495,376.622878 C679.723474,377.169875 679.450959,377.092344 679.450959,377.336352 C679.450959,377.699273 680.557962,377.425299 680.924866,376.628586 C681.208514,376.00834 681.0846,372.603642 681.0846,372.603642 L681.387126,372.597458 C681.387126,372.597458 681.404067,374.156161 681.393902,374.868684 C681.383253,375.606416 681.332429,376.53964 681.778231,376.979615 C682.071077,377.26881 683.020767,377.776328 683.020767,377.31257 C683.020767,377.042877 682.500422,376.821224 682.500422,376.091578 L682.500422,372.734445 C682.91573,372.734445 682.853288,373.838427 682.853288,373.838427 L682.883783,375.889427 C682.883783,375.889427 682.792299,376.636672 683.70617,376.94965 C684.028542,377.060476 684.718785,377.090442 684.751216,376.904463 C684.783647,376.718008 683.920116,376.440705 683.912372,375.86184 C683.907531,375.508908 683.928345,375.302952 683.928345,373.768983 C683.928345,372.235013 683.718755,371.668039 682.988336,371.216173 C685.242518,370.988337 686.637527,370.440341 687.317606,368.972535 C687.370709,368.974248 687.594452,368.286887 687.565435,368.287124 C687.717908,367.732993 687.800195,367.077548 687.816653,366.301288 C687.81278,364.19654 686.78758,363.452149 686.590575,363.102546 C686.881,361.509121 686.542171,360.783756 686.384857,360.534991 C685.804007,360.331889 684.363983,361.057254 683.577415,361.568577 C682.294704,361.199949 679.58407,361.235623 678.567582,361.663707 C676.69192,360.34378 675.699635,360.545931 675.699635,360.545931 C675.699635,360.545931 675.05828,361.675599 675.53022,363.32848 C674.913067,364.10141 674.453227,364.648407 674.453227,366.098186 C674.453227,366.914876 674.551004,367.645949 674.771727,368.28427 Z" transform="translate(-666 -353)"/>
</svg>

<?xml version="1.0" encoding="UTF-8" standalone="no"?>
<svg width="30" xmlns="http://www.w3.org/2000/svg" viewBox="0 0 30 30" height="30">
 <path fill-rule="evenodd" d="m668 353h26c1.1 0 2 0.9 2 2v26c0 1.1-0.9 2-2 2h-26c-1.1 0-2-0.9-2-2v-26c0-1.1 0.9-2 2-2zm6.77 15.28c-0.03 0 0.3 0.69 0.31 0.69 0.7 1.26 2.06 2.04 4.35 2.25-0.32 0.25-0.72 0.71-0.77 1.25-0.41 0.26-1.24 0.34-1.88 0.15-0.9-0.28-1.25-2.04-2.6-1.79-0.29 0.06-0.23 0.25 0.02 0.41 0.41 0.26 0.8 0.59 1.1 1.28 0.23 0.54 0.71 1.49 2.23 1.49 0.61 0 1.03-0.07 1.03-0.07s0.01 1.37 0.01 1.9c0 0.61-0.84 0.78-0.84 1.08 0 0.11 0.28 0.12 0.5 0.12 0.45 0 1.37-0.36 1.37-0.99v-2.51c0-0.65 0.36-0.85 0.36-0.85s0.04 3.47-0.09 3.93c-0.15 0.55-0.42 0.47-0.42 0.72 0 0.36 1.11 0.09 1.47-0.71 0.29-0.62 0.16-4.03 0.16-4.03h0.31s0.01 1.56 0 2.27c-0.01 0.74-0.06 1.67 0.39 2.11 0.29 0.29 1.24 0.8 1.24 0.33 0-0.27-0.52-0.49-0.52-1.22v-3.36c0.42 0 0.35 1.11 0.35 1.11l0.03 2.05s-0.09 0.75 0.83 1.06c0.32 0.11 1.01 0.14 1.04-0.05 0.03-0.18-0.83-0.46-0.84-1.04 0-0.35 0.02-0.56 0.02-2.09s-0.21-2.1-0.94-2.55c2.25-0.23 3.65-0.78 4.33-2.25 0.05 0 0.27-0.68 0.25-0.68 0.15-0.56 0.23-1.21 0.25-1.99-0.01-2.1-1.03-2.85-1.23-3.2 0.29-1.59-0.05-2.32-0.21-2.57-0.58-0.2-2.02 0.53-2.8 1.04-1.29-0.37-4-0.33-5.01 0.09-1.88-1.32-2.87-1.11-2.87-1.11s-0.64 1.13-0.17 2.78c-0.62 0.77-1.08 1.32-1.08 2.77 0 0.81 0.1 1.55 0.32 2.18z" transform="translate(-666 -353)" fill="#333"/>
</svg>
